X:1
T:Rory O'More
T:Rory O'More
T:Irish
C:Irish
L:1/8
M:6/8
K:G
V:1 treble 
V:1
|: e |"G" dGG BGG | dGG G2 e | dcB BAG |"D" FAA ABc |"G" dGG BGG | Bcd"C" e2 d |"G" Bcd"D7" def | %8
"G" gGG G2 :: g |"Em" gfe eBB |"Am" cBA"Em" G2 F |"C" E2 F G2 A |"G" Bed"Bm" def |"Em" gfe eBB | %15
"Am" cBA"Em" G2 F |1"Am" EFG"Em" GAB |"Bm" Bed"D7" [Fcd]2 :|2"Am" E2 F"D7" G2 A |"G" BGG G2 |] %20

